src/icons/logos/tail-JL.svg

<svg>
    <defs>
        <path d="M659.5555,1 C670.3635,1 679.1255,9.764 679.1255,20.575 C679.1255,21.731 679.025,22.864 678.833,23.965 L521.3915,631.934 C518.5705,638.453 508.106,652.3145 487.193,652.75 L486.556,652.759 L2,652.838 C338.535,231.2945 507.627,19.5075 509.275,17.477 C516.5705,8.4935 528.951,1.148 541.5525,1 L659.5555,1 Z" id="path-1"></path>
    </defs>
    <g id="JAL" stroke="none" stroke-width="1" fill="none" fill-rule="evenodd">
        <g id="Mask-Raw" transform="translate(88.000000, 88.000000)">
            <path d="M659.5555,0.25 L541.5525,0.25 C529.417951,0.392464104 516.653519,7.20156168 508.692801,17.0041958 L504.143997,22.693252 L408.78043,142.119216 L0.441350848,653.588254 L486.556122,653.509 L487.203595,653.499925 C496.850749,653.299046 504.993321,650.296167 511.536706,645.215715 C516.398031,641.441257 520.090369,636.67697 521.967184,632.487618 L522.102948,632.178405 L679.55905,24.1530201 L679.57185,24.0938457 C679.773302,22.9386432 679.8755,21.7624542 679.8755,20.575 C679.8755,9.34991032 670.777837,0.25 659.5555,0.25 Z M541.561308,1.74994828 L659.5555,1.74994828 C669.949327,1.74994828 678.3755,10.1782545 678.3755,20.575 L678.3755,20.9873085 C678.353341,21.8108328 678.282538,22.6275948 678.159826,23.4338938 L678.099,23.806 L520.6795,631.689 L520.703183,631.636141 C518.963128,635.657204 515.375715,640.335962 510.616794,644.03091 C504.32299,648.917581 496.490164,651.80623 487.177385,652.000163 L486.545405,652.009075 L3.558,652.0875 L468.817257,69.3318426 L505.306926,23.640727 L509.555328,18.3259168 L509.857335,17.9496367 C517.549486,8.47771051 529.904809,1.88684959 541.561308,1.74994828 Z" id="BG" fill="#000000" fill-rule="nonzero"></path>
            <mask id="mask-2" fill="white">
                <use xlink:href="#path-1"></use>
            </mask>
            <use id="FG" fill="#FFFFFF" xlink:href="#path-1"></use>
            <g id="Group-4" mask="url(#mask-2)">
                <g transform="translate(283.000000, 250.000000)">
                    <path d="M47.4940211,91.0971772 C47.4940211,42.7687301 86.6717471,3.59048669 134.999697,3.59048669 C183.328253,3.59048669 222.505374,42.7687301 222.505374,91.0971772 C222.505374,109.52225 216.805849,126.614129 207.08071,140.714641 L206.928811,140.661991 C155.186472,206.928348 75.3035618,128.255961 188.773605,64.1077072 C182.721869,60.1740879 169.408051,38.9930607 154.278712,38.9930607 C144.595935,38.9930607 133.70281,45.3473688 131.282116,50.7939187 L62.594917,57.7533991 L136.426091,61.6870184 C144.293348,62.2921906 148.529563,65.9232238 148.529563,72.277532 C148.529563,78.6318401 138.241612,85.8939066 131.282116,91.3404564 C125.12508,96.1588375 89.3738471,126.32062 93.9889007,168.410347 C94.5904432,173.896233 95.8685698,179.583036 97.9975703,185.444734 C93.4309306,181.385239 90.1890159,174.298673 88.2694053,165.087952 C85.3639671,163.248833 82.5753273,161.242688 79.9143791,159.084643 C60.1373072,143.040923 47.4940211,118.547183 47.4940211,91.0971772 Z M269.034748,151.1466 C269.665944,145.851948 270,140.46531 270,135 C270,130.263317 269.753089,125.58352 269.276818,120.972713 C262.266487,140.891957 248.692444,157.089996 231.594475,167.610309 C250.003855,151.979922 262.899499,129.808833 266.468812,104.208233 C263.813916,92.8291801 259.715075,82.0074907 254.384707,71.93682 C254.583809,76.2650116 254.517845,80.6537205 254.165029,85.0860017 C251.88655,113.70399 238.220521,138.632244 218.034351,155.702941 C236.976284,137.118708 248.673684,111.191315 248.518154,82.5606181 C248.469135,73.6682177 247.276338,65.0505655 245.087425,56.8420097 C220.619653,22.4403905 180.430682,0 134.999697,0 C89.5693181,0 49.3803471,22.4403905 24.9125748,56.8420097 C22.7236621,65.0505655 21.530865,73.6682177 21.4824511,82.5606181 C21.3263163,111.191315 33.0237161,137.118708 51.9650434,155.702941 C31.7794792,138.632244 18.1134499,113.70399 15.8349714,85.0860017 C15.4821552,80.6537205 15.4161913,76.2644065 15.6152934,71.9362148 C10.2849247,82.0068855 6.18608415,92.8285749 3.53118773,104.207628 C7.1005014,129.808228 19.9961448,151.979922 38.4055246,167.610309 C21.3075559,157.089391 7.73290777,140.891351 0.722577232,120.971503 C0.24630564,125.582915 0,130.262712 0,135 C0,140.46531 0.333450632,145.851948 0.964646657,151.1466 C7.50838838,164.365981 16.806275,175.873936 28.0437428,184.995091 C18.8965445,179.944929 10.5826701,173.401807 3.48458937,165.602348 C17.3479053,225.419384 70.966888,270 134.999697,270 C199.033112,270 252.652095,225.419384 266.514805,165.602348 C259.41733,173.402413 251.103456,179.944929 241.956257,184.995091 C253.193725,175.873936 262.491006,164.365981 269.034748,151.1466 L269.034748,151.1466 Z" id="Fill-4" fill="#CF0012"></path>
                    <path d="M76.0375593,226.162762 C79.3953415,227.008581 81.4685866,226.860698 85.2741946,226.860698 C88.0516868,226.860698 92.8185708,224.052721 95.0394709,217.938412 L103.730451,196 L121,196 L113.111703,217.692541 C109.674929,227.156465 105.065422,236 86.7865941,236 C81.7724033,236 73,235.160192 73,235.160192 L76.0375593,226.162762" id="Fill-5" fill="#FFFFFE"></path>
                    <path d="M147.063394,218.982618 L147.449185,207.813326 L137.573533,218.982618 L147.063394,218.982618 Z M139.571143,195 L162.735638,195 L167,234 L148.672174,234 L148.00752,227.517914 L130.637793,227.517914 L125.342427,234 L106,234 L139.571143,195 L139.571143,195 Z" id="Fill-6" fill="#FFFFFE"></path>
                    <polyline id="Fill-7" fill="#FFFFFE" points="185.93678 195 204.400995 195 194.46783 225.713874 217 225.713874 214.211551 234 172 234 185.93678 195"></polyline>
                </g>
            </g>
        </g>
    </g>
</svg>

<svg>
    <defs>
        <path d="M659.556 1c10.808 0 19.57 8.764 19.57 19.575 0 1.156-.101 2.289-.293 3.39L521.391 631.934c-2.821 6.519-13.285 20.38-34.198 20.816l-.637.009L2 652.838 509.275 17.477C516.571 8.494 528.951 1.148 541.553 1h118.003z" id="A"/></defs><g transform="translate(88 88)" fill="none" fill-rule="evenodd"><path d="M659.556.25H541.553c-12.135.142-24.899 6.952-32.86 16.754L.441 653.588l486.762-.088c9.647-.201 17.79-3.204 24.333-8.284 4.861-3.774 8.554-8.539 10.43-12.728l.136-.309L679.572 24.094c.201-1.155.304-2.331.304-3.519 0-11.225-9.098-20.325-20.32-20.325zm-117.994 1.5h117.994c10.394 0 18.82 8.428 18.82 18.825v.412c-.022.824-.093 1.64-.216 2.447l-.061.372-157.42 607.883c-1.716 3.968-5.304 8.647-10.063 12.342-6.294 4.887-14.127 7.775-23.439 7.969l-.632.009-482.987.078L509.857 17.95c7.692-9.472 20.047-16.063 31.704-16.2z" fill="#000" fill-rule="nonzero"/><mask id="B" fill="#fff"><use xlink:href="#A"/></mask><use fill="#fff" xlink:href="#A"/><g mask="url(#B)"><g transform="translate(283 250)"><path d="M47.494 91.097C47.494 42.769 86.672 3.59 135 3.59s87.506 39.178 87.506 87.507a87.09 87.09 0 0 1-15.425 49.617l-.152-.053c-51.742 66.266-131.625-12.406-18.155-76.554-6.052-3.934-19.366-25.115-34.495-25.115-9.683 0-20.576 6.354-22.997 11.801l-68.687 6.959 73.831 3.934c7.867.605 12.103 4.236 12.103 10.591s-10.288 13.616-17.247 19.063c-6.157 4.818-41.908 34.98-37.293 77.07.602 5.486 1.88 11.173 4.009 17.034-4.567-4.059-7.809-11.146-9.728-20.357-2.905-1.839-5.694-3.845-8.355-6.003-19.777-16.044-32.42-40.537-32.42-67.987zm221.541 60.049c.631-5.295.965-10.681.965-16.147a136.49 136.49 0 0 0-.723-14.027c-7.01 19.919-20.584 36.117-37.682 46.638 18.409-15.63 31.305-37.801 34.874-63.402-2.655-11.379-6.754-22.201-12.084-32.271.199 4.328.133 8.717-.22 13.149-2.278 28.618-15.945 53.546-36.131 70.617 18.942-18.584 30.639-44.512 30.484-73.142-.049-8.892-1.242-17.51-3.431-25.719C220.62 22.44 180.431 0 135 0S49.38 22.44 24.913 56.842c-2.189 8.209-3.382 16.826-3.43 25.719-.156 28.631 11.541 54.558 30.483 73.142-20.186-17.071-33.852-41.999-36.13-70.617-.353-4.432-.419-8.822-.22-13.15-5.33 10.071-9.429 20.892-12.084 32.271 3.569 25.601 16.465 47.772 34.874 63.403C21.308 157.089 7.733 140.891.723 120.972.246 125.583 0 130.263 0 135c0 5.465.333 10.852.965 16.147 6.544 13.219 15.842 24.727 27.079 33.848-9.147-5.05-17.461-11.593-24.559-19.393C17.348 225.419 70.967 270 135 270s117.652-44.581 131.515-104.398c-7.097 7.8-15.411 14.343-24.559 19.393 11.237-9.121 20.535-20.629 27.078-33.848h0z" fill="#cf0012"/><g fill="#fffffe"><path d="M76.038 226.163c3.358.846 5.431.698 9.237.698 2.777 0 7.544-2.808 9.765-8.922L103.73 196H121l-7.888 21.693C109.675 227.156 105.065 236 86.787 236c-5.014 0-13.787-.84-13.787-.84l3.038-8.997m71.025-7.18l.386-11.169-9.876 11.169h9.49zM139.571 195h23.164L167 234h-18.328l-.665-6.482h-17.37L125.342 234H106l33.571-39zm46.366 0h18.464l-9.933 30.714H217L214.212 234H172l13.937-39"/></g></g></g></g></svg>
